;FLAVOR:Marlin
;TIME:6666
;Filament used: 0m
;Layer height: 0.1
;MINX:2.14748e+06
;MINY:2.14748e+06
;MINZ:2.14748e+06
;MAXX:-2.14748e+06
;MAXY:-2.14748e+06
;MAXZ:-2.14748e+06

;Generated with Cura_SteamEngine 4.13.0
T0
M140 S60
M105
M190 S60
M104 S215
M105
M109 S215
M82 ;absolute extrusion mode
; Ender 3 Custom Start G-code
G92 E0 ; Reset Extruder
G28 ; Home all axes
G1 Z2.0 F3000 ; Move Z Axis up little to prevent scratching of Heat Bed
G1 X0.1 Y20 Z0.3 F5000.0 ; Move to start position
G1 X0.1 Y200.0 Z0.3 F1500.0 E15 ; Draw the first line
G1 X0.4 Y200.0 Z0.3 F5000.0 ; Move to side a little
G1 X0.4 Y20 Z0.3 F1500.0 E30 ; Draw the second line
G92 E0 ; Reset Extruder
G1 Z2.0 F3000 ; Move Z Axis up little to prevent scratching of Heat Bed
G1 X5 Y20 Z0.3 F5000.0 ; Move over to prevent blob squish
G92 E0
G92 E0
G1 F1500 E-6.5
;LAYER_COUNT:48
;LAYER:0
M107 P1
G0 F3600 X78.359 Y112.826 Z0.3
;TYPE:SKIRT
G1 F1500 E0
G1 F1800 X79.056 Y112.35 E0.04211
G1 X79.797 Y111.908 E0.08515
G1 X80.563 Y111.514 E0.12813
G1 X81.321 Y111.182 E0.16941
G1 X82.13 Y110.883 E0.21244
G1 X82.954 Y110.637 E0.25535
G1 X83.765 Y110.448 E0.29689
G1 X84.131 Y110.379 E0.31547
G1 X84.627 Y110.302 E0.34052
G1 X85.46 Y110.214 E0.38231
G1 X86.23 Y110.176 E0.42077
G1 X86.416 Y110.174 E0.43005
G1 X148.584 Y110.174 E3.53162
G1 X149.17 Y110.191 E3.56087
G1 X150.003 Y110.257 E3.60256
G1 X150.849 Y110.375 E3.64517
G1 X151.215 Y110.443 E3.66375
G1 X151.707 Y110.551 E3.68888
G1 X152.515 Y110.77 E3.73064
G1 X153.332 Y111.047 E3.77368
G1 X154.101 Y111.36 E3.8151
G1 X154.876 Y111.733 E3.85801
G1 X155.624 Y112.152 E3.90079
G1 X156.339 Y112.612 E3.9432
G1 X157.006 Y113.101 E3.98447
G1 X157.297 Y113.334 E4.00306
G1 X157.679 Y113.661 E4.02815
G1 X158.305 Y114.253 E4.07114
G1 X158.866 Y114.852 E4.11208
G1 X159.107 Y115.132 E4.13051
G1 X159.425 Y115.527 E4.15581
G1 X159.927 Y116.218 E4.19842
G1 X160.368 Y116.908 E4.23928
G1 X160.554 Y117.228 E4.25774
G1 X160.795 Y117.677 E4.28317
G1 X161.159 Y118.443 E4.32548
G1 X161.472 Y119.218 E4.36718
G1 X161.748 Y120.044 E4.41062
G1 X161.966 Y120.866 E4.45305
G1 X162.132 Y121.697 E4.49533
G1 X162.246 Y122.52 E4.53678
G1 X162.281 Y122.888 E4.55522
G1 X162.313 Y123.396 E4.58062
G1 X162.324 Y124.23 E4.62223
G1 X162.313 Y124.602 E4.6408
G1 X162.281 Y125.106 E4.66599
G1 X162.189 Y125.938 E4.70775
G1 X162.046 Y126.767 E4.74972
G1 X161.849 Y127.6 E4.79243
G1 X161.596 Y128.432 E4.83581
G1 X161.301 Y129.222 E4.87789
G1 X160.964 Y129.982 E4.91936
G1 X160.799 Y130.315 E4.9379
G1 X160.559 Y130.763 E4.96326
G1 X160.13 Y131.475 E5.00473
G1 X159.649 Y132.176 E5.04715
G1 X159.426 Y132.472 E5.06564
G1 X159.108 Y132.867 E5.09093
G1 X158.564 Y133.479 E5.13179
G1 X157.953 Y134.089 E5.17486
G1 X157.581 Y134.426 E5.1999
G1 X126.545 Y161.458 E7.25327
G1 X126.019 Y161.889 E7.2872
G1 X125.339 Y162.388 E7.32928
G1 X124.63 Y162.845 E7.37136
G1 X123.875 Y163.268 E7.41454
G1 X123.101 Y163.64 E7.45738
G1 X122.332 Y163.953 E7.4988
G1 X121.515 Y164.23 E7.54184
G1 X120.687 Y164.453 E7.58462
G1 X119.869 Y164.621 E7.62629
G1 X119.373 Y164.698 E7.65133
G1 X118.54 Y164.786 E7.69312
G1 X117.686 Y164.824 E7.73577
G1 X116.83 Y164.809 E7.77848
G1 X115.997 Y164.743 E7.82017
G1 X115.151 Y164.625 E7.86278
G1 X114.785 Y164.557 E7.88136
G1 X114.293 Y164.449 E7.90649
G1 X113.485 Y164.23 E7.94825
G1 X112.668 Y163.953 E7.99129
G1 X111.899 Y163.64 E8.03271
G1 X111.125 Y163.268 E8.07556
G1 X110.37 Y162.845 E8.11873
G1 X109.661 Y162.388 E8.16082
G1 X108.963 Y161.874 E8.20406
G1 X108.432 Y161.438 E8.23834
G1 X77.419 Y134.426 E10.29019
G1 X77.047 Y134.089 E10.31523
G1 X76.436 Y133.479 E10.35831
G1 X75.892 Y132.867 E10.39916
G1 X75.574 Y132.472 E10.42446
G1 X75.069 Y131.776 E10.46736
G1 X74.632 Y131.092 E10.50785
G1 X74.446 Y130.772 E10.52632
G1 X74.201 Y130.315 E10.55219
G1 X73.844 Y129.564 E10.59367
G1 X73.528 Y128.782 E10.63575
G1 X73.252 Y127.956 E10.6792
G1 X73.033 Y127.13 E10.72183
G1 X72.868 Y126.302 E10.76396
G1 X72.754 Y125.481 E10.80531
G1 X72.719 Y125.114 E10.8237
G1 X72.687 Y124.604 E10.84919
G1 X72.676 Y123.77 E10.89081
G1 X72.687 Y123.398 E10.90937
G1 X72.719 Y122.894 E10.93457
G1 X72.811 Y122.062 E10.97633
G1 X72.954 Y121.233 E11.0183
G1 X73.151 Y120.4 E11.06101
G1 X73.404 Y119.568 E11.10439
G1 X73.699 Y118.778 E11.14646
G1 X74.036 Y118.018 E11.18794
G1 X74.201 Y117.685 E11.20648
G1 X74.441 Y117.237 E11.23184
G1 X74.87 Y116.525 E11.27331
G1 X75.351 Y115.824 E11.31572
G1 X75.574 Y115.528 E11.33421
G1 X75.892 Y115.133 E11.35951
G1 X76.436 Y114.521 E11.40036
G1 X76.694 Y114.254 E11.41889
G1 X77.056 Y113.902 E11.44408
G1 X77.69 Y113.345 E11.48618
G1 X78.359 Y112.826 E11.52842
G0 F3600 X78.591 Y113.152
G1 F1800 X79.267 Y112.69 E11.56927
G1 X79.986 Y112.26 E11.61107
G1 X80.73 Y111.878 E11.65279
G1 X81.466 Y111.555 E11.69289
G1 X82.251 Y111.265 E11.73464
G1 X83.052 Y111.025 E11.77636
G1 X83.839 Y110.841 E11.81668
G1 X84.675 Y110.699 E11.85899
G1 X85.485 Y110.613 E11.89963
G1 X86.234 Y110.576 E11.93704
G1 X86.42 Y110.574 E11.94632
G1 X148.58 Y110.574 E15.0475
G1 X149.145 Y110.59 E15.0757
G1 X149.954 Y110.654 E15.11618
G1 X150.776 Y110.769 E15.15759
G1 X151.608 Y110.939 E15.19996
G1 X152.394 Y111.152 E15.24059
G1 X153.187 Y111.42 E15.28235
G1 X153.934 Y111.724 E15.32258
G1 X154.687 Y112.085 E15.36425
G1 X155.414 Y112.491 E15.40579
G1 X156.107 Y112.938 E15.44693
G1 X156.756 Y113.414 E15.48708
G1 X157.41 Y113.956 E15.52946
G1 X158.018 Y114.531 E15.57121
G1 X158.563 Y115.113 E15.61099
G1 X159.105 Y115.767 E15.65337
G1 X159.593 Y116.439 E15.6948
G1 X160.022 Y117.109 E15.73449
G1 X160.437 Y117.855 E15.77708
G1 X160.791 Y118.599 E15.81819
G1 X161.095 Y119.352 E15.8587
G1 X161.363 Y120.153 E15.90084
G1 X161.575 Y120.951 E15.94203
G1 X161.737 Y121.758 E15.9831
G1 X161.848 Y122.558 E16.02339
G1 X161.913 Y123.408 E16.06592
G1 X161.924 Y124.218 E16.10634
G1 X161.883 Y125.068 E16.14879
G1 X161.793 Y125.877 E16.1894
G1 X161.655 Y126.682 E16.23015
G1 X161.464 Y127.491 E16.27162
G1 X161.219 Y128.298 E16.3137
G1 X160.933 Y129.066 E16.35458
G1 X160.606 Y129.804 E16.39486
G1 X160.213 Y130.562 E16.43745
G1 X159.796 Y131.255 E16.4778
G1 X159.329 Y131.936 E16.519
G1 X158.805 Y132.606 E16.56144
G1 X158.277 Y133.201 E16.60112
G1 X157.684 Y133.793 E16.64293
G1 X157.318 Y134.124 E16.66755
G1 X126.282 Y161.156 E18.72092
G1 X125.768 Y161.577 E18.75406
G1 X125.107 Y162.062 E18.79497
G1 X124.419 Y162.505 E18.83579
G1 X123.686 Y162.916 E18.87772
G1 X122.934 Y163.276 E18.91931
G1 X122.187 Y163.58 E18.95955
G1 X121.394 Y163.848 E19.00131
G1 X120.589 Y164.065 E19.0429
G1 X119.795 Y164.228 E19.08334
G1 X118.958 Y164.346 E19.12551
G1 X118.144 Y164.41 E19.16625
G1 X117.314 Y164.424 E19.20766
G1 X116.485 Y164.387 E19.24906
G1 X115.678 Y164.301 E19.28955
G1 X114.858 Y164.163 E19.33104
G1 X114.033 Y163.97 E19.37331
G1 X113.251 Y163.735 E19.41405
G1 X112.466 Y163.445 E19.4558
G1 X111.73 Y163.122 E19.4959
G1 X110.986 Y162.74 E19.53762
G1 X110.267 Y162.31 E19.57942
G1 X109.591 Y161.848 E19.62027
G1 X108.901 Y161.309 E19.66395
G1 X108.695 Y161.136 E19.67737
G1 X77.682 Y134.124 E21.72922
G1 X76.981 Y133.468 E21.77712
G1 X76.436 Y132.886 E21.8169
G1 X75.894 Y132.232 E21.85928
G1 X75.403 Y131.556 E21.90096
G1 X74.978 Y130.891 E21.94033
G1 X74.559 Y130.137 E21.98337
G1 X74.212 Y129.408 E22.02365
G1 X73.905 Y128.648 E22.06454
G1 X73.637 Y127.847 E22.10668
G1 X73.424 Y127.045 E22.14808
G1 X73.263 Y126.241 E22.18899
G1 X73.152 Y125.443 E22.22918
G1 X73.087 Y124.592 E22.27176
G1 X73.076 Y123.782 E22.31218
G1 X73.117 Y122.932 E22.35463
G1 X73.207 Y122.123 E22.39524
G1 X73.345 Y121.318 E22.43599
G1 X73.536 Y120.509 E22.47746
G1 X73.781 Y119.702 E22.51954
G1 X74.067 Y118.934 E22.56042
G1 X74.394 Y118.196 E22.6007
G1 X74.787 Y117.438 E22.64329
G1 X75.204 Y116.745 E22.68364
G1 X75.671 Y116.064 E22.72484
G1 X76.195 Y115.394 E22.76728
G1 X76.723 Y114.799 E22.80696
G1 X77.325 Y114.198 E22.8494
G1 X77.941 Y113.657 E22.8903
G1 X78.591 Y113.152 E22.93137
G0 F3600 X78.822 Y113.479
G1 F1800 X79.478 Y113.029 E22.97106
G1 X80.175 Y112.613 E23.01155
G1 X80.896 Y112.242 E23.05201
G1 X81.611 Y111.927 E23.09099
G1 X82.373 Y111.646 E23.13151
G1 X83.149 Y111.413 E23.17193
G1 X83.913 Y111.234 E23.21108
G1 X84.724 Y111.096 E23.25212
G1 X85.51 Y111.012 E23.29156
G1 X86.239 Y110.976 E23.32797
G1 X86.425 Y110.974 E23.33725
G1 X148.575 Y110.974 E26.43793
G1 X149.12 Y110.989 E26.46513
G1 X149.906 Y111.051 E26.50446
G1 X150.703 Y111.162 E26.54461
G1 X151.51 Y111.327 E26.5857
G1 X152.272 Y111.533 E26.62508
G1 X153.042 Y111.792 E26.66562
G1 X153.768 Y112.088 E26.70473
G1 X154.498 Y112.437 E26.7451
G1 X155.203 Y112.831 E26.78539
G1 X155.876 Y113.265 E26.82534
G1 X156.506 Y113.726 E26.86429
G1 X157.14 Y114.252 E26.90539
G1 X157.73 Y114.809 E26.94587
G1 X158.259 Y115.374 E26.98448
G1 X158.786 Y116.008 E27.02562
G1 X159.26 Y116.659 E27.06579
G1 X159.676 Y117.31 E27.10433
G1 X160.079 Y118.033 E27.14563
G1 X160.423 Y118.754 E27.18549
G1 X160.718 Y119.485 E27.22481
G1 X160.978 Y120.262 E27.26569
G1 X161.184 Y121.037 E27.3057
G1 X161.342 Y121.82 E27.34555
G1 X161.45 Y122.596 E27.38464
G1 X161.513 Y123.42 E27.42587
G1 X161.524 Y124.206 E27.46508
G1 X161.485 Y125.03 E27.50624
G1 X161.398 Y125.815 E27.54564
G1 X161.264 Y126.597 E27.58523
G1 X161.079 Y127.382 E27.62546
G1 X160.842 Y128.165 E27.66628
G1 X160.565 Y128.909 E27.70588
G1 X160.247 Y129.627 E27.74506
G1 X159.867 Y130.361 E27.7863
G1 X159.463 Y131.034 E27.82546
G1 X159.01 Y131.695 E27.86544
G1 X158.501 Y132.345 E27.90663
G1 X157.989 Y132.923 E27.94515
G1 X157.414 Y133.498 E27.98572
G1 X157.056 Y133.823 E28.00984
G1 X126.02 Y160.855 E30.06321
G1 X125.518 Y161.265 E30.09555
G1 X124.876 Y161.735 E30.13524
G1 X124.208 Y162.166 E30.1749
G1 X123.497 Y162.563 E30.21553
G1 X122.768 Y162.912 E30.25585
G1 X122.042 Y163.208 E30.29497
G1 X121.272 Y163.467 E30.3355
G1 X120.492 Y163.677 E30.3758
G1 X119.721 Y163.835 E30.41506
G1 X118.909 Y163.949 E30.45597
G1 X118.119 Y164.011 E30.49551
G1 X117.314 Y164.024 E30.53567
G1 X116.51 Y163.988 E30.57583
G1 X115.726 Y163.904 E30.61516
G1 X114.931 Y163.77 E30.65539
G1 X114.131 Y163.582 E30.69638
G1 X113.373 Y163.354 E30.73587
G1 X112.611 Y163.073 E30.77639
G1 X111.896 Y162.758 E30.81537
G1 X111.175 Y162.387 E30.85583
G1 X110.478 Y161.971 E30.89632
G1 X109.822 Y161.521 E30.93601
G1 X109.153 Y160.998 E30.97838
G1 X108.957 Y160.835 E30.99109
G1 X77.944 Y133.823 E33.04294
G1 X77.269 Y133.19 E33.08911
G1 X76.74 Y132.625 E33.12773
G1 X76.213 Y131.991 E33.16886
G1 X75.736 Y131.335 E33.20932
G1 X75.324 Y130.69 E33.24751
G1 X74.918 Y129.96 E33.28918
G1 X74.58 Y129.251 E33.32837
G1 X74.282 Y128.515 E33.36798
G1 X74.022 Y127.738 E33.40886
G1 X73.815 Y126.96 E33.44902
G1 X73.658 Y126.179 E33.48877
G1 X73.551 Y125.405 E33.52775
G1 X73.487 Y124.58 E33.56903
G1 X73.476 Y123.794 E33.60825
G1 X73.515 Y122.97 E33.6494
G1 X73.602 Y122.185 E33.68881
G1 X73.736 Y121.403 E33.72839
G1 X73.921 Y120.618 E33.76863
G1 X74.158 Y119.835 E33.80944
G1 X74.435 Y119.091 E33.84905
G1 X74.753 Y118.373 E33.88823
G1 X75.133 Y117.639 E33.92946
G1 X75.537 Y116.966 E33.96862
G1 X75.99 Y116.305 E34.0086
G1 X76.499 Y115.655 E34.04979
G1 X77.011 Y115.077 E34.08831
G1 X77.594 Y114.494 E34.12945
G1 X78.191 Y113.969 E34.16911
G1 X78.822 Y113.479 E34.20897
G0 F3600 X79.053 Y113.805
G1 F1800 X79.689 Y113.369 E34.24744
G1 X80.364 Y112.965 E34.28669
G1 X81.063 Y112.605 E34.32591
G1 X81.756 Y112.3 E34.36369
G1 X82.494 Y112.027 E34.40294
G1 X83.246 Y111.801 E34.44212
G1 X83.987 Y111.627 E34.48009
G1 X84.773 Y111.493 E34.51987
G1 X85.535 Y111.412 E34.5581
G1 X86.243 Y111.376 E34.59347
G1 X86.429 Y111.374 E34.60275
G1 X148.571 Y111.374 E37.70303
G1 X149.095 Y111.389 E37.72918
G1 X149.857 Y111.448 E37.76731
G1 X150.63 Y111.555 E37.80624
G1 X151.412 Y111.714 E37.84606
G1 X152.151 Y111.914 E37.88425
G1 X152.897 Y112.165 E37.92352
G1 X153.601 Y112.451 E37.96143
G1 X154.309 Y112.79 E38.00059
G1 X154.992 Y113.171 E38.03961
G1 X155.645 Y113.591 E38.07835
G1 X156.256 Y114.038 E38.11612
G1 X156.87 Y114.547 E38.15591
G1 X157.442 Y115.087 E38.19515
G1 X157.956 Y115.634 E38.2326
G1 X158.466 Y116.249 E38.27246
G1 X158.926 Y116.879 E38.31138
G1 X159.33 Y117.511 E38.3488
G1 X159.72 Y118.211 E38.38878
G1 X160.054 Y118.91 E38.42743
G1 X160.341 Y119.619 E38.46559
G1 X160.593 Y120.372 E38.5052
G1 X160.793 Y121.122 E38.54393
G1 X160.946 Y121.881 E38.58255
G1 X161.051 Y122.634 E38.62049
G1 X161.113 Y123.432 E38.66042
G1 X161.124 Y124.194 E38.69844
G1 X161.087 Y124.993 E38.73834
G1 X161.003 Y125.754 E38.77654
G1 X160.873 Y126.512 E38.81491
G1 X160.694 Y127.272 E38.85386
G1 X160.465 Y128.031 E38.89342
G1 X160.196 Y128.753 E38.93186
G1 X159.889 Y129.449 E38.96981
G1 X159.521 Y130.161 E39.00979
G1 X159.129 Y130.814 E39.04779
G1 X158.69 Y131.454 E39.08651
G1 X158.198 Y132.085 E39.12643
G1 X157.701 Y132.645 E39.16378
G1 X157.145 Y133.202 E39.20305
G1 X156.793 Y133.521 E39.22675
G1 X125.757 Y160.553 E41.28012
G1 X125.267 Y160.953 E41.31167
G1 X124.645 Y161.409 E41.35015
G1 X123.997 Y161.826 E41.3886
G1 X123.308 Y162.211 E41.42797
G1 X122.601 Y162.549 E41.46707
G1 X121.897 Y162.835 E41.50498
G1 X121.151 Y163.086 E41.54425
G1 X120.395 Y163.289 E41.5833
G1 X119.647 Y163.442 E41.62139
G1 X118.86 Y163.552 E41.66104
G1 X118.094 Y163.611 E41.69937
G1 X117.314 Y163.624 E41.73829
G1 X116.535 Y163.588 E41.77719
G1 X115.775 Y163.507 E41.81532
G1 X115.004 Y163.377 E41.85433
G1 X114.229 Y163.195 E41.89405
G1 X113.494 Y162.973 E41.93235
G1 X112.756 Y162.7 E41.97161
G1 X112.063 Y162.395 E42.00939
G1 X111.364 Y162.035 E42.04861
G1 X110.689 Y161.631 E42.08786
G1 X110.053 Y161.195 E42.12633
G1 X109.404 Y160.687 E42.16745
G1 X109.22 Y160.533 E42.17942
G1 X78.207 Y133.521 E44.23127
G1 X77.557 Y132.912 E44.27571
G1 X77.043 Y132.365 E44.31315
G1 X76.533 Y131.75 E44.35301
G1 X76.07 Y131.115 E44.39222
G1 X75.67 Y130.489 E44.42928
G1 X75.276 Y129.782 E44.46966
G1 X74.949 Y129.095 E44.50762
G1 X74.659 Y128.381 E44.54607
G1 X74.407 Y127.628 E44.58568
G1 X74.206 Y126.875 E44.62457
G1 X74.054 Y126.118 E44.66309
G1 X73.949 Y125.367 E44.70092
G1 X73.887 Y124.568 E44.7409
G1 X73.876 Y123.806 E44.77892
G1 X73.913 Y123.007 E44.81883
G1 X73.997 Y122.246 E44.85702
G1 X74.127 Y121.488 E44.89539
G1 X74.306 Y120.728 E44.93435
G1 X74.535 Y119.969 E44.9739
G1 X74.804 Y119.247 E45.01234
G1 X75.111 Y118.551 E45.05029
G1 X75.479 Y117.839 E45.09028
G1 X75.871 Y117.186 E45.12827
G1 X76.31 Y116.546 E45.16699
G1 X76.802 Y115.915 E45.20691
G1 X77.299 Y115.355 E45.24427
G1 X77.863 Y114.79 E45.2841
G1 X78.442 Y114.281 E45.32256
G1 X79.053 Y113.805 E45.3612
G0 F3600 X79.284 Y114.131
G1 F1800 X79.9 Y113.709 E45.39845
G1 X80.554 Y113.318 E45.43647
G1 X81.23 Y112.969 E45.47442
G1 X81.901 Y112.673 E45.51101
G1 X82.615 Y112.408 E45.54901
G1 X83.343 Y112.189 E45.58693
G1 X84.061 Y112.02 E45.62373
G1 X84.821 Y111.89 E45.6622
G1 X85.559 Y111.811 E45.69923
G1 X86.247 Y111.776 E45.7336
G1 X86.433 Y111.774 E45.74288
G1 X148.567 Y111.774 E48.84276
G1 X149.071 Y111.788 E48.86791
G1 X149.809 Y111.845 E48.90484
G1 X150.557 Y111.948 E48.94251
G1 X151.313 Y112.102 E48.981
G1 X152.03 Y112.295 E49.01805
G1 X152.752 Y112.538 E49.05605
G1 X153.434 Y112.815 E49.09278
G1 X154.119 Y113.142 E49.13065
G1 X154.781 Y113.511 E49.16846
G1 X155.414 Y113.917 E49.20598
G1 X156.006 Y114.35 E49.24257
G1 X156.601 Y114.843 E49.28112
G1 X157.155 Y115.365 E49.31909
G1 X157.653 Y115.895 E49.35538
G1 X158.147 Y116.489 E49.39392
G1 X158.592 Y117.1 E49.43163
G1 X158.984 Y117.712 E49.46789
G1 X159.362 Y118.389 E49.50658
G1 X159.686 Y119.066 E49.54402
G1 X159.964 Y119.753 E49.58099
G1 X160.209 Y120.481 E49.61932
G1 X160.402 Y121.207 E49.65679
G1 X160.551 Y121.942 E49.69421
G1 X160.653 Y122.672 E49.73098
G1 X160.713 Y123.444 E49.76961
G1 X160.724 Y124.182 E49.80644
G1 X160.688 Y124.955 E49.84504
G1 X160.608 Y125.693 E49.88208
G1 X160.482 Y126.426 E49.91918
G1 X160.31 Y127.163 E49.95694
G1 X160.088 Y127.897 E49.9952
G1 X159.828 Y128.597 E50.03245
G1 X159.53 Y129.272 E50.06927
G1 X159.174 Y129.96 E50.10791
G1 X158.796 Y130.593 E50.1447
G1 X158.371 Y131.214 E50.18224
G1 X157.895 Y131.824 E50.22084
G1 X157.414 Y132.367 E50.25703
